X: 11871
T: Emily's
R: reel
M: 4/4
K: Dmajor
|:A~F3 ABdf|e~B3 eBdB|~A3F ABdf|feed edB/c/d|
A~F3 ABdf|e~B3 g2fg|gffg fdAF|G2~G2- GFED:|
|:~f3d edgf|e~B3 ~g3e|f2fe edfa|aggf gfed|
f2ff edgf|e~B3 g4|gffg fdAF|G2~g2- gfed:|
|:ad~d2 adbd|gd (3Bcd g2fg|ad~d2 adfa|aggf gfg^g|
ad~d2 adbd|gd (3Bcd g2fg|gffg fdAF|G2~G2- GFED:|

